X:321
T: AUF IHR BRUEDER FRISCH UND FROH
N: F0553
O: Europa, Mitteleuropa, Deutschland
R: Studenten -, Wander - Lied
M: 4/4
L: 1/8
K: D
 | D3EF2G2 | A2F2B4
A3AB2c2 | d4D2z2
D3EF2G2 | A2F2d4
A3A^G2B2 | B4A2z2
B2A2G2A2 | B3AG2z2
A2G2F2G2 | A3GF2z2
D3FA2d2 | d4B2z2
A2A2B2G2 | E4D2z2

